X:281
M:C|
L:1/8
K:D
|:A<A c>A G/G/G BG|A<A c>A A/A/A c>A|c>ABA G/G/G B>G|A<A c>A B/c/d e2:|
|:A<A c>e dgBG|A<A c>e AacA|a/g/f/e/ fd gdBG|A<A c>e B/c/d e2:|
|:A2 cA BGBG|A2 cA cAcA|cAcA BGBG|A<A c>A B/c/d e2:|
|:A<A c>e AgBG|A<A c>e AacA|gaeg dgBb|gaeg dg e2:|

